X: 10795
T: Drag Her Round The Road
R: reel
M: 4/4
K: Eminor
BEED E2GE|EDB,E DEGA|BEED E2DE|1 GABG A2GA:|2 GABG A2BA||
G2GF GBdB|cBAB cded|~B2BA GABd|dBGB AGEF|
G2GF GBdB|cBAB cdef|gedB c2ge|dBGB A2GA||

